X: 512
T:Jennie Baubee
M:2/4
L:1/16
N:Posted to the woodenflute mailing list May 2002
R:reel
Z:David Migoya
K:G
dedc BG~G2|cBAG FDD2|dedc BG~G2|EBFA G3B|dedc BG~G2|
cA~A2 BGE2|DEGB dedB|cAFA G4:|:BGGB BG~G2|cBAG FAD2|
BGGB cA~A2|BGAF ~G3A|BGGB BG~G2|cA~A2dB~B2|dedc BG~G2|EGFA G4:||
<end>
<start>
